X:181
T: Waise und Stiefmutter
N: Q1116H
O: Mitteleuropa, Oesterreich / Italien, Sued - Tirol
N: Melodievergleich zu Q0116, anderes Lied.
R: ???
M: 6/8
L: 1/16
K: G
D2 | G4G2G2F2G2 | A2A2z6
DD | A4A2A2G2A2 | B4z6
d2 | d4c2A4c2 | c4B2G4
B2 | B2A2B2c2B2A2 | G4z6

@@@ Tune index: 1474
